!!!OTL: Die Brombeeren.
!!!OTL-incipit: ES WOLLT EIN  MAEDCHEN FRUEH AUFSTEHEN
!!!ARE: Europa, Mitteleuropa, Deutschland, Oberrhein
!!!SCT: Z1063
!!!TXL: @@DE
!!!YEM: Copyright 1995, estate of Helmut Schaffrath.
**kern	**text
*ICvox	*
*M4/4	*
*met(c)	*
*k[f#c#]	*
*D:	*
!LO:TX:a:t=Vom Oberrhein.	!
{8dL	Es
8eJ	.
=1	=1
4f#	wollt'
8f#L	ein
8eJ	.
4d	Mädchen
8eL	.
8f#J	.
=2	=2
4g	früh
8gL	auf-
8f#J	.
4e}	-ſtehn,
{8f#L	drei
8gJ	.
=3	=3
4.a	Vier-
8g	-tel-
4f#	-ſtund
8eL	vor
8dJ	.
=4	=4
2e	Tag,
4r}	.
{8dL	es
8eJ	.
=5	=5
4f#	woll-
8f#L	-te
8eJ	.
4d	bre-
8eL	-chen
8f#J	.
=6	=6
2g	Brom-
2e}	-beern,
=7	=7
{2c#	ju
2A	ja
=8	=8
2a	Brom-
4f#}	-beern,
{4f#	ein
=9	=9
8aL	gan-
8gJ	.
4g	-ʒes
4e	Körbchen
4g	.
=10	=10
2f#	voll.
4r}	.
==	==
!!!AGN: Romanze, Ballade, Jaeger - Lied
!!!ONB: ESAC (Essen Associative Code) Database: ZUCCAL
!!!AMT: simple quadruple
!!!AIN: vox
!!!EED: Helmut Schaffrath
!!!EEV: 1.0
!!!GTL: II. Gau- Leuschen.
!!!URL-scan: https://www.digitale-sammlungen.de/de/view/bsb11160573?page=141
!!!ENC: Anna Maria Matuszewska
!!!EEV: 2025/03/02
*-	*-
